telier/img/about-insta.svg

<svg width="17" height="16" viewBox="0 0 17 16" fill="none" xmlns="http://www.w3.org/2000/svg">
<path d="M8.25449 1.43371C10.3573 1.43371 10.644 1.43371 11.5042 1.43371C12.2689 1.43371 12.6512 1.62487 12.9379 1.72045C13.3203 1.91162 13.607 2.0072 13.8938 2.29394C14.1805 2.58068 14.3717 2.86742 14.4672 3.24975C14.5628 3.53649 14.6584 3.91881 14.754 4.68346C14.754 5.54368 14.754 5.73484 14.754 7.9332C14.754 10.1316 14.754 10.3227 14.754 11.1829C14.754 11.9476 14.5628 12.3299 14.4672 12.6167C14.2761 12.999 14.1805 13.2857 13.8938 13.5725C13.607 13.8592 13.3203 14.0504 12.9379 14.1459C12.6512 14.2415 12.2689 14.3371 11.5042 14.4327C10.644 14.4327 10.4528 14.4327 8.25449 14.4327C6.05613 14.4327 5.86497 14.4327 5.00475 14.4327C4.2401 14.4327 3.85778 14.2415 3.57103 14.1459C3.18871 13.9548 2.90197 13.8592 2.61523 13.5725C2.32849 13.2857 2.13732 12.999 2.04174 12.6167C1.94616 12.3299 1.85058 11.9476 1.755 11.1829C1.755 10.3227 1.755 10.1316 1.755 7.9332C1.755 5.73484 1.755 5.54368 1.755 4.68346C1.755 3.91881 1.94616 3.53649 2.04174 3.24975C2.2329 2.86742 2.32849 2.58068 2.61523 2.29394C2.90197 2.0072 3.18871 1.81603 3.57103 1.72045C3.85778 1.62487 4.2401 1.52929 5.00475 1.43371C5.86497 1.43371 6.15171 1.43371 8.25449 1.43371ZM8.25449 0C6.05613 0 5.86497 0 5.00475 0C4.14452 0 3.57103 0.191162 3.09313 0.382324C2.61523 0.573485 2.13732 0.860227 1.65942 1.33813C1.18152 1.81603 0.990355 2.19836 0.703613 2.77184C0.512451 3.24975 0.41687 3.82323 0.321289 4.68346C0.321289 5.54368 0.321289 5.83043 0.321289 7.9332C0.321289 10.1316 0.321289 10.3227 0.321289 11.1829C0.321289 12.0432 0.512451 12.6167 0.703613 13.0946C0.894774 13.5725 1.18152 14.0504 1.65942 14.5283C2.13732 15.0062 2.51965 15.1973 3.09313 15.4841C3.57103 15.6752 4.14452 15.7708 5.00475 15.8664C5.86497 15.8664 6.15171 15.8664 8.25449 15.8664C10.3573 15.8664 10.644 15.8664 11.5042 15.8664C12.3645 15.8664 12.9379 15.6752 13.4158 15.4841C13.8938 15.2929 14.3717 15.0062 14.8496 14.5283C15.3275 14.0504 15.5186 13.668 15.8054 13.0946C15.9965 12.6167 16.0921 12.0432 16.1877 11.1829C16.1877 10.3227 16.1877 10.036 16.1877 7.9332C16.1877 5.83043 16.1877 5.54368 16.1877 4.68346C16.1877 3.82323 15.9965 3.24975 15.8054 2.77184C15.6142 2.29394 15.3275 1.81603 14.8496 1.33813C14.3717 0.860227 13.9893 0.669066 13.4158 0.382324C12.9379 0.191162 12.3645 0.0955807 11.5042 0C10.644 0 10.4528 0 8.25449 0Z" fill="#0047FF"/>
<path d="M8.25449 3.82323C5.96055 3.82323 4.14452 5.63926 4.14452 7.9332C4.14452 10.2271 5.96055 12.0432 8.25449 12.0432C10.5484 12.0432 12.3645 10.2271 12.3645 7.9332C12.3645 5.63926 10.5484 3.82323 8.25449 3.82323ZM8.25449 10.6095C6.82078 10.6095 5.57823 9.46249 5.57823 7.9332C5.57823 6.49949 6.7252 5.25694 8.25449 5.25694C9.6882 5.25694 10.9308 6.40391 10.9308 7.9332C10.9308 9.36691 9.6882 10.6095 8.25449 10.6095Z" fill="#0047FF"/>
<path d="M12.46 4.68346C12.9879 4.68346 13.4158 4.25553 13.4158 3.72765C13.4158 3.19977 12.9879 2.77184 12.46 2.77184C11.9322 2.77184 11.5042 3.19977 11.5042 3.72765C11.5042 4.25553 11.9322 4.68346 12.46 4.68346Z" fill="#0047FF"/>
</svg>

<svg width="17" height="16" fill="none" xmlns="http://www.w3.org/2000/svg"><path d="M8.254 1.434h3.25c.765 0 1.147.19 1.434.286.382.192.669.287.956.574.287.287.478.573.573.956.096.286.191.669.287 1.433v6.5c0 .765-.191 1.147-.287 1.434-.19.382-.287.669-.573.955-.287.287-.574.478-.956.574-.287.095-.67.191-1.434.287h-6.5c-.764 0-1.146-.191-1.433-.287-.382-.191-.669-.287-.956-.574-.287-.286-.478-.573-.573-.955-.096-.287-.191-.67-.287-1.434v-6.5c0-.764.191-1.147.287-1.433.19-.383.286-.67.573-.956.287-.287.574-.478.956-.574.287-.095.67-.19 1.434-.286h3.25zm0-1.434h-3.25c-.86 0-1.433.191-1.91.382a4.173 4.173 0 00-1.435.956c-.477.478-.669.86-.955 1.434C.512 3.25.417 3.823.32 4.683v6.5c0 .86.191 1.434.383 1.912.19.477.478.955.955 1.433.478.478.86.67 1.434.956.478.191 1.052.287 1.912.382h6.5c.86 0 1.433-.19 1.91-.382a4.173 4.173 0 001.435-.956c.478-.478.669-.86.955-1.433.191-.478.287-1.052.383-1.912v-6.5c0-.86-.191-1.433-.383-1.911a4.174 4.174 0 00-.955-1.434C14.372.86 13.99.67 13.416.382 12.938.192 12.364.096 11.504 0h-3.25z" fill="#0047FF"/><path d="M8.254 3.823a4.08 4.08 0 00-4.11 4.11 4.08 4.08 0 004.11 4.11 4.08 4.08 0 004.11-4.11 4.08 4.08 0 00-4.11-4.11zm0 6.787a2.672 2.672 0 01-2.676-2.677 2.672 2.672 0 012.676-2.676 2.672 2.672 0 012.677 2.676c0 1.434-1.243 2.677-2.677 2.677zm4.206-5.927a.956.956 0 100-1.911.956.956 0 000 1.911z" fill="#0047FF"/></svg>
